X: 14035
T: The HARRIS HORNPIPE
C: Bob McQuillen May'08
B: Bob's Note Book 14 #35
%R: hornpipe, reel
%D:20R08
Z: 2020 John Chambers <jc:trillian.mit.edu>
M: C
L: 1/8
K: D
fg \
| a2fd BdAG | F2D2 D2FE | DFAB Adfd | ceA2 A2fg |
| a2fd BdAG | FDFA BAFA | GBed cAce | d2f2 d2  :|
|: dB \
| A2FA GBAG | FAd2 d2cB | Ace2 e2ag | fafd BdAG |
| FDFA GBAG | FAdB A2fa | gfed ceag | f2d2 d2  :|
%%begintext align
%% It's always fun
%% when "Old New England" gets to play for
%% Dave Harris at the East Concord Dance.
%% It's a real nice hall, and we enjoy
%% playing there. Thanks a lot, Dave!
%%endtext

%%sep 1 1 500

%%sep 1 1 500

